X: 1
T: Hal Robinson's Rant
C: Anne Hooper (1999)
Z: John Chambers <jc:trillian.mit.edu>
B: Celebrate Fifty Years of Dancing with the Boston Branch RSCDS (2000)
M: C|
L: 1/8
K: E
ec \
| "E"Bege fege \
| fege "A"fece \
| "E"Bede "F#m"cAFc \
|1 "B7"Beed "E"e2 \
:|2 "B7"BAGF "E"E2  ||
[| ef \
| "E"gbBb "A"agfe \
| "B7"dcBd fagf \
| "E"gbBb "A"cagf \
| "B7"edcB "E"e2ef |
| "E"gbBb "A"caca \
| "E"Bgfe "B7"dcBA \
| "E"GBeB "F#m"cAFc \
| "B7"BAGF "E"E2  |]
